X:1
T:Laetitia, 86.86.86
T:Laetitia, 86.86.86
T:Adapted from Ludwig Spohr (1784-1859)
T:Public Domain Courtesy of the Cyber Hymnal™
C:Adapted from Ludwig Spohr (1784-1859)
Z:Public Domain
Z:Courtesy of the Cyber Hymnal™
%%score ( 1 2 ) ( 3 4 )
L:1/8
Q:1/4=112
M:4/4
K:Eb
V:1 treble 
V:2 treble 
V:3 bass 
V:4 bass 
V:1
 [EB]2 | [EG]2 [DB]2 E2 [Be]2 | [Ae]2 (dc) [AB]2 [FA]2 | [EG]2 [EA]2 [EB]2 [Ec]2 | [DF]6 [FB]2 | %5
 [EG]2 [DB]2 E2 [Ge]2 x | [Ff]2 [Fe]2 [Fd]2 [Ge]2 | [Gc]2 [Gd]2 [Ge]2 c2 | [DB]6 [EG]2 | %9
 [EA]2 [EA]2 [DB]2 [Ee]2 | [Ee]2 (dc) [EB]2 [FA]2 | [EG]2 [Ec]2 [EG]2 [DF]2 | E6 |] %13
V:2
 x2 | x4 E2 x2 | x2 A2 x4 | x8 | x8 | x4 E2 x3 | x8 | x6 (FE) | x8 | x8 | x2 E2 x4 | x8 | E6 |] %13
V:3
 [E,G,]2 | [E,B,]2 [F,B,]2 [G,B,]2 [G,E]2 | [F,F]2 (FE) [B,D]2 [D,B,]2 | %3
 [E,B,]2 [C,A,]2 [G,,G,]2 [A,,F,]2 | [B,,B,]6 [D,B,]2 | B,3 z A, [C,G,]2 [CE]2 | %6
 [=A,C]2 [A,C]2 B,2 [E,B,]2 | [E,B,]2 [D,B,]2 [C,B,]2 [F,=A,]2 | [B,,B,]6 [E,B,]2 | %9
 [C,C]2 [C,E,]2 [B,,F,]2 [G,,B,]2 | [A,,C]2 (B,A,) [E,G,]2 [D,B,]2 | %11
 [E,B,]2 [A,,C]2 [B,,B,]2 (B,A,) | [E,G,]6 |] %13
V:4
 x2 | x8 | x2 F,2 x4 | x8 | x8 | E,2 B,,2 x5 | x4 B,2 x2 | x8 | x8 | x8 | x2 A,,2 x4 | x6 B,,2 | %12
 x6 |] %13

